svg/u1f3e8.svg

<svg viewBox="0 0 128 128" xmlns="http://www.w3.org/2000/svg">
  <path d="M3.68,43.11l17.03,0.21c0,0-0.07-10.03,0-10.78c0.07-0.74,0.67-0.97,1.63-0.97s11.52,0,11.52,0 s4.21-19.72,30.67-19.58c25.08,0.13,29.89,19.36,29.89,19.36s11.22,0.15,11.96,0.15s1.11,0.59,1.11,1.41s0,10.26,0,10.26l16.78,0 l-0.8,1.93l-4.9,8.25L9.33,53.34L3.68,43.11z" fill="#FADBBC"/>
  <path d="M20.6,51.7L9.9,51.71c0,0-4.53-7.4-4.93-7.98c-0.53-0.75-1.72-0.63-2.11-0.57 c-0.67,0.09-0.14,1.17,0.61,2.25c0.75,1.08,3.94,6.43,3.94,6.43v72.02h113.22l0.09-71.78c0,0,3.98-6.54,4.37-7.19 s0.98-1.69,0.26-1.73c-0.78-0.04-1.68-0.18-2.45,1.03c-0.88,1.39-4.58,7.16-4.58,7.16h-10.8V40.17H90.92c0,0-0.59-22.84-27.15-22.68 c-26.55,0.17-26.25,22.66-26.25,22.66H20.74C20.74,40.16,20.6,51.5,20.6,51.7z" fill="#B99277"/>
  <polygon points="9.86,56.19 20.45,56.19 20.45,100.47 9.77,100.57 " fill="#E2C090"/>
  <path d="M23.14,44.67v44.38l81.98-0.09v-44.1H85.81c0,0,1.38-22.41-21.45-22.65 c-23.67-0.26-21.91,22.28-21.91,22.28L23.14,44.67z" fill="#E2C090"/>
  <path d="M42.45,44.49l-6.16,0.05l0,79.36h6.37C42.67,123.9,42.51,44.49,42.45,44.49z" fill="#FADBBC"/>
  <path d="M85.81,44.86h6.39l-0.01,79.01h-6.67C85.52,123.87,85.97,44.5,85.81,44.86z" fill="#FADBBC"/>
  <path d="M118.25,56.56h-10.32v43.9h10.22C118.15,100.46,118.25,56.26,118.25,56.56z" fill="#E2C090"/>
  <polygon points="50.22,99.45 50.19,124.2 78.2,124.2 78.23,98.69 " fill="#FFA828"/>
  <polygon points="52.8,102.66 52.8,121.29 62.68,121.29 62.68,102.72 " fill="#546F7A"/>
  <polygon points="65.51,102.85 75.27,102.85 75.52,121.29 65.58,121.29 " fill="#546F7A"/>
  <path d="M20.69,99.03c0,0.31,0.08,26.61,0.23,26.84c0.15,0.23,7.43,0.31,7.74,0c0.08-0.08,0-27,0-27 L20.69,99.03z" fill="#FADDC3"/>
  <path d="M99.67,99.27c0,0-0.29,25.44-0.08,26.07c0.08,0.23,7.33,0.43,7.74,0.15 c0.23-0.15,0.23-26.3,0.23-26.3L99.67,99.27z" fill="#FADDC3"/>
  <path d="M113.79,116.93c-1.48-0.06-4.56-1.43-4.25-6.26c0.3-4.73,2.66-7.38,4.25-7.44s4.25,4.08,4.25,7.56 C118.04,114.81,116.39,117.04,113.79,116.93z" fill="#2F7C31"/>
  <path d="M14.67,103.29c-1.49,0.06-4.48,3.96-4.37,8.33c0.12,4.61,2.6,5.67,4.19,5.79 c1.59,0.12,4.37-1.83,4.25-6.08S16.15,103.23,14.67,103.29z" fill="#2F7C31"/>
  <path d="M10.96,116.64c-0.16,0.4,0.06,7.23,0.06,7.23l6.73-0.01c0,0,0.11-6.99,0.11-7.23 C17.87,116.4,11.04,116.44,10.96,116.64z" fill="#E2C090"/>
  <path d="M110.18,116.34c-0.06-0.3,6.91-0.24,6.97-0.06c0.13,0.39-0.1,7.62-0.1,7.62h-6.85L110.18,116.34z" fill="#E2C090"/>
  <path d="M19.42,91.91c0,0,0.07,5.86,0.12,6.83s-0.11,1.89,2.06,1.91c2.13,0.02,84.69,0.04,85.76,0.04 c1.07,0,2.28-0.61,2.38-2.14c0.1-1.52,0.05-6.43,0.05-6.43l-46.36-1.6L19.42,91.91z" fill="#AF0C1A"/>
  <path d="M109.79,92.12c0,0,0.05-2.2,0.05-2.88c0-0.69-0.61-1.22-2.37-1.26c-1.76-0.04-84.52-0.15-86.24-0.15 s-1.76,0.9-1.84,1.74c-0.08,0.84,0.02,2.34,0.02,2.34L109.79,92.12z" fill="#FADBBC"/>
  <rect height="45.64" fill="#6C1507" width="8.64" x="46.9" y="37.64"/>
  <rect height="45.64" fill="#6C1507" width="8.64" x="73.05" y="37.64"/>
  <rect height="9" fill="#6C1507" width="20" x="54.17" y="56.37"/>
  <rect height="10.06" fill="#536F79" width="6.38" x="95.68" y="46.61"/>
  <rect height="10.06" fill="#536F79" width="6.38" x="95.65" y="60.63"/>
  <rect height="10.06" fill="#536F79" width="6.38" x="95.65" y="74.9"/>
  <rect height="10.06" fill="#536F79" width="6.38" x="26.74" y="47.06"/>
  <rect height="10.06" fill="#536F79" width="6.38" x="26.71" y="61.08"/>
  <rect height="10.06" fill="#536F79" width="6.38" x="26.71" y="75.35"/>
  <rect height="10.06" fill="#536F79" width="6.38" x="11.91" y="61.16"/>
  <rect height="10.06" fill="#536F79" width="6.38" x="11.91" y="75.42"/>
  <rect height="10.06" fill="#536F79" width="6.38" x="109.94" y="60.67"/>
  <rect height="10.06" fill="#536F79" width="6.38" x="109.94" y="74.94"/>
</svg>

<svg viewBox="0 0 128 128" xmlns="http://www.w3.org/2000/svg">
  <defs/>
  <path d="M3.68,43.11 L20.71,43.32 C20.71,43.32 20.64,33.29 20.71,32.54 C20.78,31.8 21.38,31.57 22.34,31.57 C23.3,31.57 33.86,31.57 33.86,31.57 C33.86,31.57 38.07,11.85 64.53,11.99 C89.61,12.12 94.42,31.35 94.42,31.35 C94.42,31.35 105.64,31.5 106.38,31.5 C107.12,31.5 107.49,32.09 107.49,32.91 C107.49,33.73 107.49,43.17 107.49,43.17 L124.27,43.17 L123.47,45.1 L118.57,53.35 L9.33,53.34 L3.68,43.11 Z" fill="#FADBBC"/>
  <path d="M20.6,51.7 L9.9,51.71 C9.9,51.71 5.37,44.31 4.97,43.73 C4.44,42.98 3.25,43.1 2.86,43.16 C2.19,43.25 2.72,44.33 3.47,45.41 C4.22,46.49 7.41,51.84 7.41,51.84 L7.41,123.86 L120.63,123.86 L120.72,52.08 C120.72,52.08 124.7,45.54 125.09,44.89 C125.48,44.24 126.07,43.2 125.35,43.16 C124.57,43.12 123.67,42.98 122.9,44.19 C122.02,45.58 118.32,51.35 118.32,51.35 L107.52,51.35 L107.52,40.17 L90.92,40.17 C90.92,40.17 90.33,17.33 63.77,17.49 C37.22,17.66 37.52,40.15 37.52,40.15 L20.74,40.15 C20.74,40.16 20.6,51.5 20.6,51.7 Z" fill="#B99277"/>
  <path d="M9.86,56.19 L20.45,56.19 L20.45,100.47 L9.77,100.57 Z" fill="#E2C090"/>
  <path d="M23.14,44.67 L23.14,89.05 L105.12,88.96 L105.12,44.86 L85.81,44.86 C85.81,44.86 87.19,22.45 64.36,22.21 C40.69,21.95 42.45,44.49 42.45,44.49 L23.14,44.67 Z" fill="#E2C090"/>
  <path d="M42.45,44.49 L36.29,44.54 L36.29,123.9 L42.66,123.9 C42.67,123.9 42.51,44.49 42.45,44.49 Z" fill="#FADBBC"/>
  <path d="M85.81,44.86 L92.2,44.86 L92.19,123.87 L85.52,123.87 C85.52,123.87 85.97,44.5 85.81,44.86 Z" fill="#FADBBC"/>
  <path d="M118.25,56.56 L107.93,56.56 L107.93,100.46 L118.15,100.46 C118.15,100.46 118.25,56.26 118.25,56.56 Z" fill="#E2C090"/>
  <path d="M50.22,99.45 L50.19,124.2 L78.2,124.2 L78.23,98.69 Z" fill="#FFA828"/>
  <path d="M52.8,102.66 L52.8,121.29 L62.68,121.29 L62.68,102.72 Z" fill="#546F7A"/>
  <path d="M65.51,102.85 L75.27,102.85 L75.52,121.29 L65.58,121.29 Z" fill="#546F7A"/>
  <path d="M20.69,99.03 C20.69,99.34 20.77,125.64 20.92,125.87 C21.07,126.1 28.35,126.18 28.66,125.87 C28.74,125.79 28.66,98.87 28.66,98.87 L20.69,99.03 Z" fill="#FADDC3"/>
  <path d="M99.67,99.27 C99.67,99.27 99.38,124.71 99.59,125.34 C99.67,125.57 106.92,125.77 107.33,125.49 C107.56,125.34 107.56,99.19 107.56,99.19 L99.67,99.27 Z" fill="#FADDC3"/>
  <path d="M113.79,116.93 C112.31,116.87 109.23,115.5 109.54,110.67 C109.84,105.94 112.2,103.29 113.79,103.23 C115.38,103.17 118.04,107.31 118.04,110.79 C118.04,114.81 116.39,117.04 113.79,116.93 Z" fill="#2F7C31"/>
  <path d="M14.67,103.29 C13.18,103.35 10.19,107.25 10.3,111.62 C10.42,116.23 12.9,117.29 14.49,117.41 C16.08,117.53 18.86,115.58 18.74,111.33 C18.62,107.08 16.15,103.23 14.67,103.29 Z" fill="#2F7C31"/>
  <path d="M10.96,116.64 C10.8,117.04 11.02,123.87 11.02,123.87 L17.75,123.86 C17.75,123.86 17.86,116.87 17.86,116.63 C17.87,116.4 11.04,116.44 10.96,116.64 Z" fill="#E2C090"/>
  <path d="M110.18,116.34 C110.12,116.04 117.09,116.1 117.15,116.28 C117.28,116.67 117.05,123.9 117.05,123.9 L110.2,123.9 L110.18,116.34 Z" fill="#E2C090"/>
  <path d="M19.42,91.91 C19.42,91.91 19.49,97.77 19.54,98.74 C19.59,99.71 19.43,100.63 21.6,100.65 C23.73,100.67 106.29,100.69 107.36,100.69 C108.43,100.69 109.64,100.08 109.74,98.55 C109.84,97.03 109.79,92.12 109.79,92.12 L63.43,90.52 L19.42,91.91 Z" fill="#AF0C1A"/>
  <path d="M109.79,92.12 C109.79,92.12 109.84,89.92 109.84,89.24 C109.84,88.55 109.23,88.02 107.47,87.98 C105.71,87.94 22.95,87.83 21.23,87.83 C19.51,87.83 19.47,88.73 19.39,89.57 C19.31,90.41 19.41,91.91 19.41,91.91 L109.79,92.12 Z" fill="#FADBBC"/>
  <path d="M46.9,37.64 L55.54,37.64 L55.54,83.28 L46.9,83.28 L46.9,37.64 Z" fill="#6C1507"/>
  <path d="M73.05,37.64 L81.69,37.64 L81.69,83.28 L73.05,83.28 L73.05,37.64 Z" fill="#6C1507"/>
  <path d="M54.17,56.37 L74.17,56.37 L74.17,65.37 L54.17,65.37 L54.17,56.37 Z" fill="#6C1507"/>
  <path d="M95.68,46.61 L102.06,46.61 L102.06,56.67 L95.68,56.67 L95.68,46.61 Z" fill="#536F79"/>
  <path d="M95.65,60.63 L102.03,60.63 L102.03,70.69 L95.65,70.69 L95.65,60.63 Z" fill="#536F79"/>
  <path d="M95.65,74.9 L102.03,74.9 L102.03,84.96 L95.65,84.96 L95.65,74.9 Z" fill="#536F79"/>
  <path d="M26.74,47.06 L33.12,47.06 L33.12,57.12 L26.74,57.12 L26.74,47.06 Z" fill="#536F79"/>
  <path d="M26.71,61.08 L33.09,61.08 L33.09,71.14 L26.71,71.14 L26.71,61.08 Z" fill="#536F79"/>
  <path d="M26.71,75.35 L33.09,75.35 L33.09,85.41 L26.71,85.41 L26.71,75.35 Z" fill="#536F79"/>
  <path d="M11.91,61.16 L18.29,61.16 L18.29,71.22 L11.91,71.22 L11.91,61.16 Z" fill="#536F79"/>
  <path d="M11.91,75.42 L18.29,75.42 L18.29,85.48 L11.91,85.48 L11.91,75.42 Z" fill="#536F79"/>
  <path d="M109.94,60.67 L116.32,60.67 L116.32,70.73 L109.94,70.73 L109.94,60.67 Z" fill="#536F79"/>
  <path d="M109.94,74.94 L116.32,74.94 L116.32,85 L109.94,85 L109.94,74.94 Z" fill="#536F79"/>
</svg>
